packages/icons/svg/Product_Promise_Scan_24px.svg

<svg xmlns="http://www.w3.org/2000/svg" viewBox="0 0 24 24"><path d="M3 8.38a1 1 0 01-1-1V3a1 1 0 011-1h4.38a1 1 0 010 2H4v3.38a1 1 0 01-1 1zM21 8.38a1 1 0 01-1-1V4h-3.38a1 1 0 010-2H21a1 1 0 011 1v4.38a1 1 0 01-1 1zM7.38 22H3a1 1 0 01-1-1v-4.39a1 1 0 012 0V20h3.38a1 1 0 110 2zM22 21a1 1 0 01-1 1h-4.38a1 1 0 010-2H20v-3.39a1 1 0 012 0zM8.85 8.2h.61v7.78h-.61zM12.83 8.2h.61v7.78h-.61zM16.97 8.2h.61v7.78h-.61zM6.43 8.2h1.56v7.78H6.43zM10.21 8.2h1.56v7.78h-1.56zM14.54 8.2h1.56v7.78h-1.56z"/></svg>

<svg xmlns="http://www.w3.org/2000/svg" viewBox="0 0 24 24"><defs></defs><g id="Icon"><path  d="M3,8.38a1,1,0,0,1-1-1V3A1,1,0,0,1,3,2H7.38a1,1,0,0,1,0,2H4V7.38A1,1,0,0,1,3,8.38Z"/><path  d="M21,8.38a1,1,0,0,1-1-1V4H16.62a1,1,0,0,1,0-2H21a1,1,0,0,1,1,1V7.38A1,1,0,0,1,21,8.38Z"/><path  d="M7.38,22H3a1,1,0,0,1-1-1V16.61a1,1,0,0,1,2,0V20H7.38a1,1,0,1,1,0,2Z"/><path  d="M22,21a1,1,0,0,1-1,1H16.62a1,1,0,0,1,0-2H20V16.61a1,1,0,0,1,2,0Z"/><rect  x="8.85" y="8.2" width="0.61" height="7.78"/><rect  x="12.83" y="8.2" width="0.61" height="7.78"/><rect  x="16.97" y="8.2" width="0.61" height="7.78"/><rect  x="6.43" y="8.2" width="1.56" height="7.78"/><rect  x="10.21" y="8.2" width="1.56" height="7.78"/><rect  x="14.54" y="8.2" width="1.56" height="7.78"/></g></svg>
